X: 88
T: Adonay sanctissime Domine Deus
C: Gaspar van Weerbeke
%%abc-version 2.0
%%abcx-abcm2ps-target-version 5.9.1 (29 Sep 2008)
%%abc-creator hum2abc beta
%%abcx-conversion-date 2022/03/06 13:05:58
%%abc-copyright Copyright 2008, Pavanello, Agnese
%%abc-edited-by Mair-Gruber, Roland
%%humdrum-veritas 3687309166
%%humdrum-veritas-data 3154034567
%%linebreak <none>
%%barnumbers 0
L: 1/4
M: 2/2
N: Derived from Gas0412-Adonay_sanctissime_domine_deus.krn
%%staves [1 2 3 4]
V: 1 clef=treble
V: 2 clef=treble-8
V: 3 clef=treble-8
V: 4 clef=bass
K: F
[V:1] z4 | 
[V:2] G4 | 
[V:3] z4 | 
[V:4] z4 | 
[V:1] G4 | 
[V:2] B3G | 
[V:3] z4 | 
[V:4] z4 | 
[V:1] B3G | 
[V:2] d2d/c/B/A/ | 
[V:3] G4 | 
[V:4] z4 | 
[V:1] d2d/c/B/A/ | 
[V:2] G4 | 
[V:3] B3G | 
[V:4] G,4 | 
[V:1] G3F/_E/ | 
[V:2] z2G2 | 
[V:3] B2c2 | 
[V:4] _E,2E,2 | 
[V:1] F4 | 
[V:2] A4 | 
[V:3] d4 | 
[V:4] D,4 | 
[V:1] B4 | 
[V:2] G2de | 
[V:3] d3B | 
[V:4] z2G,2 | 
[V:1] A2GA- | 
[V:2] f2zc- | 
[V:3] c2BA | 
[V:4] F,2G,F,- | 
[V:1] A/G/F/E/DF | 
[V:2] cf2d | 
[V:3] c2d2 | 
[V:4] F,/E,/D,/C,/B,,B, | 
[V:1] GA2B | 
[V:2] _ef2_e/d/ | 
[V:3] Bcdc/B/ | 
[V:4] G,F,2G, | 
[V:1] cA2d | 
[V:2] cf3 | 
[V:3] Ad2c/B/ | 
[V:4] A,F,D,3/E,/ | 
[V:1] cABA- | 
[V:2] f2zf- | 
[V:3] A2dc- | 
[V:4] F,2B,,F,- | 
[V:1] AG2^F | 
[V:2] f/_e/cd2 | 
[V:3] c/B/GA2 | 
[V:4] F,/G,/_E,D,2 | 
[V:1] G4 | 
[V:2] z4 | 
[V:3] G4 | 
[V:4] _E,3D,/C,/ | 
[V:1] z4 | 
[V:2] z4 | 
[V:3] B4 | 
[V:4] (3B,, C, D,G,,3/A,,/ | 
[V:1] z4 | 
[V:2] z4 | 
[V:3] B2B2- | 
[V:4] B,,/C,/D,_E,G,- | 
[V:1] z4 | 
[V:2] z4 | 
[V:3] BA/G/A2 | 
[V:4] G,F,/_E,/F,2 | 
[V:1] z4 | 
[V:2] z4 | 
[V:3] G2B2- | 
[V:4] B,>A, G,/F,/G,- | 
[V:1] z4 | 
[V:2] z4 | 
[V:3] B2B2 | 
[V:4] G,F,/_E,/D,E,- | 
[V:1] z4 | 
[V:2] z4 | 
[V:3] B3A/G/ | 
[V:4] E,D,/C,/ B,,/C,/D,/=E,/ | 
[V:1] z4 | 
[V:2] z4 | 
[V:3] A2GB- | 
[V:4] F,2zG,- | 
[V:1] z4 | 
[V:2] z4 | 
[V:3] BA/G/AB | 
[V:4] G,F,/E,/F,G, | 
[V:1] z4 | 
[V:2] z4 | 
[V:3] GBAB- | 
[V:4] B,A,/G,/F,G,- | 
[V:1] z4 | 
[V:2] z4 | 
[V:3] BA/G/F2 | 
[V:4] G,F,/E,<D,E,/ | 
[V:1] z4 | 
[V:2] z4 | 
[V:3] D/E/F/G/ A/B/c- | 
[V:4] F,/G,/F,D,_E,- | 
[V:1] z4 | 
[V:2] z4 | 
[V:3] c/d/B2A | 
[V:4] E,/F,/D,C,2 | 
[V:1] z4 | 
[V:2] f4 | 
[V:3] B4 | 
[V:4] B,,4 | 
[V:1] B4 | 
[V:2] f2f2 | 
[V:3] z2d2 | 
[V:4] B,,4 | 
[V:1] B2B2 | 
[V:2] f3e | 
[V:3] d2d2 | 
[V:4] B,,2B,,2 | 
[V:1] B4 | 
[V:2] dcBA/G/ | 
[V:3] d4 | 
[V:4] B,,4 | 
[V:1] A2G2 | 
[V:2] Ffd3/e/ | 
[V:3] c2B2 | 
[V:4] F,2G,2 | 
[V:1] A2B2 | 
[V:2] f/e/d/c/B2 | 
[V:3] A2d2 | 
[V:4] F,2G,2 | 
[V:1] c3B/A/ | 
[V:2] A3F | 
[V:3] c2A3/B/ | 
[V:4] A,2F,2 | 
[V:1] GFG2 | 
[V:2] GA2G | 
[V:3] cd3/^c//=B//^c | 
[V:4] E,D,E,2 | 
[V:1] F4 | 
[V:2] A2d3/c/ | 
[V:3] d4 | 
[V:4] D,4 | 
[V:1] B4 | 
[V:2] B/A/G2F/E/ | 
[V:3] z4 | 
[V:4] z4 | 
[V:1] B2B2- | 
[V:2] DE/F/ G/A/B/c/ | 
[V:3] z4 | 
[V:4] z4 | 
[V:1] BA/G/A2 | 
[V:2] def2 | 
[V:3] z4 | 
[V:4] z4 | 
[V:1] G2B2 | 
[V:2] zg2f/e/ | 
[V:3] z4 | 
[V:4] z4 | 
[V:1] AB2A/G/ | 
[V:2] f/e/d/c/ B/c/d/e/ | 
[V:3] z4 | 
[V:4] z4 | 
[V:1] A2GB | 
[V:2] f2ed | 
[V:3] z4 | 
[V:4] z4 | 
[V:1] AB2A/G/ | 
[V:2] cd2c/B/ | 
[V:3] z4 | 
[V:4] z4 | 
[V:1] F2D3/E/ | 
[V:2] Af2e/d/ | 
[V:3] z4 | 
[V:4] z4 | 
[V:1] F/G/A/B/cd- | 
[V:2] dc/B/Af- | 
[V:3] z4 | 
[V:4] z4 | 
[V:1] dB2A | 
[V:2] f_e/d/c2 | 
[V:3] z4 | 
[V:4] z4 | 
[V:1] B2z2 | 
[V:2] B2z2 | 
[V:3] D3E | 
[V:4] B,,3C, | 
[V:1] z4 | 
[V:2] z4 | 
[V:3] FGAB- | 
[V:4] D,E,F,D,- | 
[V:1] z4 | 
[V:2] z4 | 
[V:3] B/A/G2^F | 
[V:4] D,C,/B,,/A,,2 | 
[V:1] D3E | 
[V:2] B3c | 
[V:3] G2z2 | 
[V:4] G,,2z2 | 
[V:1] FGAB- | 
[V:2] defd- | 
[V:3] z4 | 
[V:4] z4 | 
[V:1] B/A/G2^F | 
[V:2] dc/B/A2 | 
[V:3] z4 | 
[V:4] z4 | 
[V:1] G2zG- | 
[V:2] G2z2 | 
[V:3] B3A/G/ | 
[V:4] G,>F,D,E,- | 
[V:1] GF/E/ D/E/F/G/ | 
[V:2] G>ABF- | 
[V:3] B2zB | 
[V:4] E,D,/C,/ B,,/C,/D,/E,/ | 
[V:1] A>GEF- | 
[V:2] F/G/A/B/cz | 
[V:3] A3G/F/ | 
[V:4] F,>E,C,D,- | 
[V:1] FE/D/ C/D/E/F/ | 
[V:2] F>GAE- | 
[V:3] A2zA | 
[V:4] D,C,/B,,/ A,,/B,,/C,/D,/ | 
[V:1] G>FDE- | 
[V:2] E/F/G/A/Bz | 
[V:3] G3F/E/ | 
[V:4] E,>D,B,,C,- | 
[V:1] ED/C/ B,/C/D/E/ | 
[V:2] E>FGD- | 
[V:3] G2zG | 
[V:4] C,B,,/A,,/ G,,/A,,/B,,/C,/ | 
[V:1] F>ECD- | 
[V:2] D/E/F/G/AF | 
[V:3] F3E/D/ | 
[V:4] D,>C,A,,B,,- | 
[V:1] DC/B,/A,2 | 
[V:2] B2zd- | 
[V:3] F2zF | 
[V:4] B,,A,,/G,,/D,2 | 
[V:1] G,/A,/B,/C/DE | 
[V:2] dB2A/G/ | 
[V:3] G>ABc | 
[V:4] G,,G,>F,E, | 
[V:1] FGAB- | 
[V:2] AGf2- | 
[V:3] dBcd- | 
[V:4] D,G,F,B,,- | 
[V:1] BA/G/F2 | 
[V:2] fed2 | 
[V:3] dc/B/A2 | 
[V:4] B,,C,D,2 | 
[V:1] G3^F/E/ | 
[V:2] B2c2 | 
[V:3] G4 | 
[V:4] _E,4 | 
[V:1] !fermata!^F4 | 
[V:2] !fermata!d4 | 
[V:3] !fermata!A4 | 
[V:4] !fermata!D,4 | 
[V:1] G4 |]  
[V:2] d4 |]  
[V:3] G4 |]  
[V:4] G,,4 |]  


